ix/mirroring-screen_twotone.svg

<svg viewBox="0 0 24 24" fill="none" xmlns="http://www.w3.org/2000/svg" height="1em" width="1em">
  <path d="M2 9V8C2 5 4 3 7 3H17C20 3 22 5 22 8V16C22 19 20 21 17 21H16" stroke="#292D32" stroke-width="1.5" stroke-linecap="round" stroke-linejoin="round"/>
  <path opacity="0.4" d="M3.69043 11.71C8.31043 12.3 11.7004 15.7 12.3004 20.32" stroke="#292D32" stroke-width="1.5" stroke-linecap="round" stroke-linejoin="round"/>
  <path opacity="0.4" d="M2.62012 15.0698C6.01012 15.4998 8.50012 17.9998 8.94012 21.3898" stroke="#292D32" stroke-width="1.5" stroke-linecap="round" stroke-linejoin="round"/>
  <path opacity="0.4" d="M1.98047 18.8599C3.67047 19.0799 4.92047 20.3199 5.14047 22.0199" stroke="#292D32" stroke-width="1.5" stroke-linecap="round" stroke-linejoin="round"/>
</svg>

<svg viewBox="0 0 24 24" fill="none" xmlns="http://www.w3.org/2000/svg" height="1em" width="1em">
  <path d="M2 9V8c0-3 2-5 5-5h10c3 0 5 2 5 5v8c0 3-2 5-5 5h-1" stroke="#292D32" stroke-width="1.5" stroke-linecap="round" stroke-linejoin="round"/>
  <path opacity=".4" d="M3.69 11.71c4.62.59 8.01 3.99 8.61 8.61m-9.68-5.25c3.39.43 5.88 2.93 6.32 6.32m-6.96-2.53c1.69.22 2.94 1.46 3.16 3.16" stroke="#292D32" stroke-width="1.5" stroke-linecap="round" stroke-linejoin="round"/>
</svg>
